X: 91
M:2/4
L:1/16
K:F
u(c>.B)|\
(A>.c)(f>.c) kA2u(c>.B) | A>cf>c ka2g>f |\
 e>cg>e b>ge>g | f>ag>f e>dc>B |
 f2a2f2 :|
|:u(g>.a)|\
v(b>.g)(b>.g) "^SEGUE"g>eg>e | a>fa>f c>Ac>A |\
 B>cd>e f>ga>b | a2g2 {a}(g^fg)a |
vb>gb>g g>eg>e | a>fa>f c>Ac>A | d>c=B>c "4"e>dB>G |\
 F2a2f2 :|


